X:1
T:Jesus Will Be with Us
T:Jesus Will Be with Us
T:James Milton Dungan
T:Nellie Dungan, 1896
T:Public Domain Courtesy of the Cyber Hymnal™
T:Public Domain Courtesy of the Cyber Hymnal™
C:James Milton Dungan
Z:Public Domain
Z:Courtesy of the Cyber Hymnal™
%%score ( 1 2 ) ( 3 4 )
L:1/8
Q:1/4=93
M:4/4
K:Ab
V:1 treble 
V:2 treble 
V:3 bass 
V:4 bass 
V:1
 [Ec]>[CA] | [CE]2 [CE]>[EA] [Ec]2 [Ec]>[Ec] | [Fd]<[Fd] [FA]>[_FB] [Ec]4 | %3
w: 1.~Tho’ the|night may be dark, And the|path- way may be drear,|
w: 2.~When we|walk in the path That the|bless- èd Sav- ior trod,|
w: 3.~Oh, the|joy that we feel When we’re|trust- ing in His love,|
 [Ee]<[Ee] [Ec]>[EB] [FA]<[FA] [=DG]>[DA] | [EB]6 [Ec]>[CA] | [CE]2 [CE]>[EA] [Ec]2 [Ec]>[Ec] | %6
w: Je- sus will be with us all the|way; We will|rest in His love, For He|
w: Je- sus will be with us all the|way; Tho’ a|rough, thorn- y road, It will|
w: Je- sus will be with us all the|way; We will|sing as we go To the|
 [Fd]<[Fd] [FA]>[_FB] [Ec]4 | [DF]<[DF] [Fd]>[Fd] [Ec]<[EA] [EG]>[EB] | [EA]6 z2 || %9
w: ev- er will be near,|Je- sus will be with us all the|way.|
w: lead us un- to God,|Je- sus will be with us all the|way.|
w: home pre- pared a- bove,|Je- sus will be with us all the|way.|
"^Refrain" [Ee]<[Ee] [Ee]>[Ed] [Ec]<[Ec] [EB]>[EA] | c6 z2 | %11
w: ||
w: Je- sus will be with us all the|way;|
w: ||
 [Ee]>[Ee] [Ee]>[Ed] [Ec]<[Ec] [=DB]>[DA] | B6 [Ec]>[CA] | [CE]2 [CE]>[EA] [Ec]2 [Ec]>[Ec] | %14
w: |||
w: He will guide and keep us day by|day; In the|con- flict of life, ’Mid the|
w: |||
 [Fd]<[Fd] [FA]>[_FB] [Ec]4 | [DF]<[DF] [Fd]>[Fd] [Ec]<[EA] [EG]>[EB] | [EA]6 |] %17
w: |||
w: bat- tle and the strife,|Je- sus will be with us all the|way.|
w: |||
V:2
 x2 | x8 | x8 | x8 | x8 | x8 | x8 | x8 | x8 || x8 | (E2 E>E E2) x2 | x8 | (E2 E>E E2) x2 | x8 | %14
 x8 | x8 | x6 |] %17
V:3
 [A,,A,]>[A,,A,] | [A,,A,]2 [A,,A,]>[A,,C] [A,,A,]2 [A,,A,]>[A,,A,] | %2
w: ||
 [D,A,]<[D,A,] [D,A,]>[D,A,] [A,,A,]4 | [A,C]<[A,C] [A,E]>[A,D] [F,C]<[F,C] [B,,B,]>[B,,F,] | %4
w: ||
 [E,G,]6 [A,,A,]>[A,,A,] | [A,,A,]2 [A,,A,]>[A,,C] [A,,A,]2 [A,,A,]>[A,,A,] | %6
w: ||
 [D,A,]<[D,A,] [D,A,]>[D,A,] [A,,A,]4 | [D,A,]<[D,A,] [D,A,]<[D,A,] [E,A,]<[E,C] [E,B,]>[E,D] | %8
w: ||
 [A,,C]6 z2 || [A,C]<[A,C] [A,C]>[A,B,] A,<A, [A,D]>[A,C] | A,2 [E,A,]>[C,A,] [A,,A,]2 z2 | %11
w: |* * * * all the * *|way, day by day;|
 [A,C]>[A,C] [A,C]>[A,B,] A,<A, [B,,F,]>[B,,F,] | [E,G,]2 [E,G,]>[E,G,] [E,G,]2 [A,,A,]>[A,,A,] | %13
w: ||
 [A,,A,]2 [A,,A,]>[A,,C] [A,,A,]2 [A,,A,]>[A,,A,] | [D,A,]<[D,A,] [D,A,]>[D,A,] [A,,A,]4 | %15
w: ||
 [D,A,]<[D,A,] [D,A,]<[D,A,] [E,A,]<[E,C] [E,B,]>[E,D] | [A,,C]6 |] %17
w: ||
V:4
 x2 | x8 | x8 | x8 | x8 | x8 | x8 | x8 | x8 || x4 A,<A, x2 | A,2 x6 | x4 A,<A, x2 | x8 | x8 | x8 | %15
 x8 | x6 |] %17

